X: 11441
T: Easy Club, The
R: reel
M: 4/4
K: Gmajor
|:GDGB AEAc|Bdde dGBd|edef ge e2|gedc BGAF|
GD D2 ADcD|Bdde dBAG|edef gedc|BGAF G4:|
|:e2ge cege|d2gd Bdgd|e2ge cdef|gedc BddB|
G2 BG ABcA|BcdB cdef|g3d egdc|BGAF G4:|
|:eg g2 cgfg|dg g2 Bgfg|eg g2 cgfg|Bd d2 AcBA|
GD D2 GDBD|AD D2 ADcD|Bdgd (3efg dc|BGAF G4:|

